src/pos-icons/timeline-clock.svg

<svg height="24" viewBox="0 0 24 24" width="24" xmlns="http://www.w3.org/2000/svg"><path d="m4 2v6h-2v-6zm-2 20v-6h2v6zm3-10c0 1.11-.89 2-2 2-1.1 0-2-.89-2-2 0-1.1.9-2 2-2 1.11 0 2 .9 2 2m11-8c4.42 0 8 3.58 8 8s-3.58 8-8 8c-3.6 0-6.64-2.38-7.65-5.65l-2.35-2.35 2.35-2.35c1.01-3.27 4.05-5.65 7.65-5.65m-1 9 4.53 2.79.8-1.29-3.83-2.3v-5.2h-1.5z"/></svg>

<?xml version="1.0" encoding="UTF-8"?><!DOCTYPE svg PUBLIC "-//W3C//DTD SVG 1.1//EN" "http://www.w3.org/Graphics/SVG/1.1/DTD/svg11.dtd"><svg xmlns="http://www.w3.org/2000/svg" xmlns:xlink="http://www.w3.org/1999/xlink" version="1.1" id="mdi-timeline-clock" width="24" height="24" viewBox="0 0 24 24"><path d="M4 2V8H2V2H4M2 22V16H4V22H2M5 12C5 13.11 4.11 14 3 14C1.9 14 1 13.11 1 12C1 10.9 1.9 10 3 10C4.11 10 5 10.9 5 12M16 4C20.42 4 24 7.58 24 12C24 16.42 20.42 20 16 20C12.4 20 9.36 17.62 8.35 14.35L6 12L8.35 9.65C9.36 6.38 12.4 4 16 4M15 13L19.53 15.79L20.33 14.5L16.5 12.2V7H15V13Z" /></svg>
